status/22/fcitx-shuangpin-libpinyin.svg

<svg xmlns="http://www.w3.org/2000/svg" viewBox="0 0 22 22">
  <defs id="defs3051">
    <style type="text/css" id="current-color-scheme">
      .ColorScheme-Text {
        color:#eff0f1;
      }
      </style>
  </defs>
    <path
       style="fill:currentColor;fill-opacity:1;stroke:none" 
       d="M 3 3 L 3 19 L 19 19 L 19 3 L 3 3 z M 5 5 L 10.548828 5 L 10.498047 5.5488281 C 10.498047 5.5488281 10.169908 9.0699341 9.2734375 11.677734 C 9.8561109 12.550834 10.412442 13.452953 11.111328 14.689453 L 10.242188 15.179688 C 9.7033035 14.226287 9.2574754 13.491288 8.8203125 12.804688 C 7.4258712 15.929988 5.4550781 17.292969 5.4550781 17.292969 L 4.8984375 16.460938 C 4.8984375 16.460938 6.8688283 15.146988 8.1621094 11.804688 C 7.3964558 10.698287 6.5268081 9.5832533 5.109375 7.8144531 L 5.890625 7.1875 C 7.0718949 8.6617002 7.8640436 9.679778 8.5585938 10.642578 C 9.1095504 8.7368779 9.3567404 6.6434001 9.4277344 6 L 5 6 L 5 5 z M 11 5 L 17 5 L 17 5.5 C 17 7.6466003 16.167138 10.468103 15.292969 12.408203 C 15.182005 12.654503 15.051361 12.874162 14.925781 13.101562 C 15.549551 14.184963 16.385971 15.215031 17.769531 16.332031 L 17.142578 17.111328 C 15.861493 16.077028 14.995516 15.070475 14.339844 14.046875 C 12.946645 16.033775 11.236328 17.083984 11.236328 17.083984 L 10.71875 16.228516 C 10.71875 16.228516 12.49905 15.127738 13.787109 13.085938 C 13.449417 12.437537 13.165672 11.77865 12.900391 11.09375 C 12.142306 9.1367498 11.691778 6.5916001 11.589844 6 L 11 6 L 11 5 z M 12.607422 6 C 12.746688 6.7654001 13.17577 9.0333217 13.833984 10.732422 C 14.007492 11.180322 14.184987 11.599772 14.373047 12.013672 C 14.375547 12.007672 14.378359 12.008047 14.380859 11.998047 C 15.137806 10.318047 15.815205 7.8531002 15.923828 6 L 12.607422 6 z "
       class="ColorScheme-Text"
        />
</svg>

<svg xmlns="http://www.w3.org/2000/svg" viewBox="0 0 22 22">
 <defs>
  <style id="current-color-scheme" type="text/css">.ColorScheme-Text {
                color:#f2f2f2;
            }</style>
 </defs>
<path class="ColorScheme-Text" d="M6 3C4.338 3 3 4.338 3 6v10c0 1.662 1.338 3 3 3h10c1.662 0 3-1.338 3-3V6c0-1.662-1.338-3-3-3zM5 5h5.549l-.051.549s-.328 3.52-1.225 6.129a46 46 0 0 1 1.838 3.011l-.869.49a51 51 0 0 0-1.422-2.374c-1.394 3.125-3.365 4.488-3.365 4.488l-.557-.832s1.97-1.314 3.264-4.656c-.766-1.107-1.635-2.222-3.053-3.99l.782-.628c1.18 1.475 1.973 2.493 2.668 3.456.55-1.906.798-4 .869-4.643H5zm6 0h6v.5c0 2.147-.833 4.968-1.707 6.908-.111.247-.242.466-.367.694.624 1.083 1.46 2.113 2.844 3.23l-.627.78c-1.282-1.035-2.147-2.042-2.803-3.065-1.393 1.987-3.104 3.037-3.104 3.037l-.517-.855s1.78-1.101 3.068-3.143a20 20 0 0 1-.887-1.992C12.142 9.137 11.692 6.592 11.59 6H11zm1.607 1c.14.765.569 3.033 1.227 4.732.173.448.351.868.539 1.282.003-.006.005-.006.008-.016.757-1.68 1.434-4.145 1.543-5.998z" style="fill:currentColor;fill-opacity:1;stroke:none"/></svg>
